src/components/About/Team/assets/medium.svg

<?xml version="1.0" encoding="UTF-8"?>
<svg width="18px" height="17px" viewBox="0 0 18 17" version="1.1" xmlns="http://www.w3.org/2000/svg" xmlns:xlink="http://www.w3.org/1999/xlink">
    <!-- Generator: Sketch 47.1 (45422) - http://www.bohemiancoding.com/sketch -->
    <title>Icon_ medium Copy 2@1x</title>
    <desc>Created with Sketch.</desc>
    <defs></defs>
    <g id="Website" stroke="none" stroke-width="1" fill="none" fill-rule="evenodd">
        <g id="About--Desktop-1170px" transform="translate(-230.000000, -2474.000000)" fill="#46F2A0">
            <g id="//Content" transform="translate(-318.000000, 0.000000)">
                <g id="Team" transform="translate(318.000000, 2032.000000)">
                    <g id="member" transform="translate(149.000000, 204.000000)">
                        <g id="Icons" transform="translate(81.000000, 238.000000)">
                            <path d="M5.99665893,3.80020986 C5.99665893,3.79016521 5.97656962,3.76003124 5.96652497,3.74998659 L0.833706351,1.17855495 C0.693081183,1.10824237 0.552456016,1.02788513 0.391741538,1.02788513 C0.120535858,1.02788513 0,1.25891219 0,1.51002856 L0,12.9609351 C0,13.2622747 0.220982406,13.6238823 0.502232742,13.7645075 L5.17299724,16.104912 C5.27344379,16.1551353 5.38393499,16.1852693 5.50447085,16.1852693 C5.84598911,16.1852693 5.99665893,15.8939743 5.99665893,15.58259 L5.99665893,3.80020986 Z M6.63951684,4.81472 L12.0033625,13.5133911 L6.63951684,10.8415129 L6.63951684,4.81472 Z M18.0000215,4.99552379 L18.0000215,15.58259 C18.0000215,15.9140636 17.809173,16.1450907 17.4776994,16.1450907 C17.3069403,16.1450907 17.1462258,16.0948674 17.0056006,16.0145101 L12.5759078,13.8046861 L18.0000215,4.99552379 Z M17.9698875,3.79016521 C17.9698875,3.83034383 12.7768009,12.2578092 12.3750148,12.9006671 L8.45759937,6.53235598 L11.7120675,1.23882288 C11.8225587,1.05801909 12.0234518,0.957572546 12.2343896,0.957572546 C12.3247915,0.957572546 12.4151934,0.977661856 12.4955506,1.01784047 L17.9297089,3.72989728 C17.9497982,3.73994193 17.9698875,3.76003124 17.9698875,3.79016521 Z" id="Icon_-medium-Copy-2"></path>
                        </g>
                    </g>
                </g>
            </g>
        </g>
    </g>
</svg>

<svg width="18" height="17" viewBox="0 0 18 17" xmlns="http://www.w3.org/2000/svg"><title>Icon_ medium Copy 2@1x</title><path d="M5.997 3.8c0-.01-.02-.04-.03-.05L.834 1.179c-.14-.07-.282-.151-.442-.151-.271 0-.392.23-.392.482v11.45c0 .302.221.664.502.805l4.671 2.34c.1.05.21.08.331.08.342 0 .493-.291.493-.602V3.8zm.643 1.015l5.363 8.698-5.363-2.671V4.815zm11.36.18v10.588c0 .331-.19.562-.522.562a.951.951 0 0 1-.472-.13l-4.43-2.21L18 4.995zm-.03-1.205c0 .04-5.193 8.468-5.595 9.11L8.458 6.533l3.254-5.293a.606.606 0 0 1 .522-.281c.09 0 .181.02.262.06L17.93 3.73c.02.01.04.03.04.06z" fill="#46F2A0" fill-rule="evenodd"/></svg>
